X:1
T:Title
%%score { 1 | ( 2 3 ) }
L:1/8
M:4/4
K:Eb
V:1 treble nm="Grand Piano"
V:2 bass 
V:3 bass 
V:1
 z4 z2[Q:1/4=110] B2 | B2 G2 [GB]3 [FA] | G2 E2 G3 E | D2 E2 [DF]3 [FA] | %4
[M:7/8] [EG]2 [DF]2 [EG]3 |[M:1/4] [GB]2 |[M:4/4] [GB]2 [EG]2 [Ge]3 [EGB] | %7
 [EBd]2 [EAc]2 [EGB]2 A2 | G4 E2 F2 | E6 [DF]2 | [DF][EG][FA][GB] [Ac]2 [GB]2 | %11
 [FA]2 [=EG]2 [FA]3 [B,DF] | [EG][FA][GB][Ac] [GB]2 [FA]2 | [EG]2 [DF]2 G3 B | cd e2 e3 e | %15
 d2 c2 B3 [GB] | [FA]2 [EG]2 [DF]3 [FA] |[M:7/8] [EG]2 F2 E3 |] %18
V:2
 z4 z2 [E,G,E]2 | [E,G,E]2 [E,B,E]2 [E,E]3 [E,B,] | [E,B,E]2 [E,G,B,]2 [E,B,E]3 [G,B,] | %3
 [F,A,B,]2 [E,G,B,]2 [B,,B,]3 [B,,B,] |[M:7/8] [B,,B,]2 [B,,B,]2 [E,B,]3 |[M:1/4] [E,E]2 | %6
[M:4/4] [E,E]2 [E,B,]2 [E,B,]3 E, | A,,2 C,2 E,2[K:treble] [A,CF]2 | %8
 [B,E]4[K:bass] [B,,F,B,]2 [B,,A,B,]2 | [E,G,B,]6 [B,,B,]2 | [B,,B,]2 [B,,B,]2 [B,,B,]2 [B,,B,]2 | %11
 [B,,B,]2 [B,,B,]2 B,,3 B,, | [D,B,]2 [E,E]2 [E,E]2 [E,B,]2 | [E,B,]2 [B,,B,]2 [E,B,E]3 [E,G,E] | %14
 z B, [A,CE]2 [A,CE]3 [A,CE] | [A,B,E]2 [A,E]2 [E,G,E]3 [E,B,] | [D,B,]2 [E,B,]2 [B,,B,]3 [B,,B,] | %17
[M:7/8] [B,,B,]2 [B,,A,B,]2 [E,G,B,]3 |] %18
V:3
 x8 | x8 | x8 | x8 |[M:7/8] x7 |[M:1/4] x2 |[M:4/4] x8 | x6[K:treble] x2 | x4[K:bass] x4 | x8 | %10
 x8 | x8 | x8 | x8 | [A,E]2 z2 z4 | x8 | x8 |[M:7/8] x7 |] %18

